SF_Symbols/pencil.and.outline.svg

<?xml version="1.0" encoding="UTF-8"?>
<svg xmlns="http://www.w3.org/2000/svg" xmlns:xlink="http://www.w3.org/1999/xlink" width="24" height="24" viewBox="0 0 24 24" version="1.1">
<g id="surface1">
<path style=" stroke:none;fill-rule:nonzero;fill:rgb(100%,100%,100%);fill-opacity:1;" d="M 5.292969 19.269531 C 6.015625 19.992188 6.769531 20.597656 7.5625 21.082031 C 8.359375 21.570312 9.144531 21.957031 9.917969 22.25 C 10.695312 22.542969 11.417969 22.761719 12.082031 22.90625 C 12.75 23.058594 13.3125 23.15625 13.769531 23.199219 C 14.042969 23.226562 14.25 23.171875 14.394531 23.042969 C 14.546875 22.910156 14.636719 22.757812 14.65625 22.582031 C 14.675781 22.402344 14.628906 22.226562 14.511719 22.050781 C 14.390625 21.886719 14.203125 21.785156 13.949219 21.75 C 13.53125 21.695312 13.019531 21.597656 12.417969 21.457031 C 11.8125 21.320312 11.160156 21.117188 10.457031 20.855469 C 9.757812 20.597656 9.046875 20.257812 8.332031 19.832031 C 7.625 19.402344 6.957031 18.871094 6.332031 18.238281 C 5.3125 17.21875 4.503906 16.097656 3.90625 14.875 C 3.308594 13.644531 2.9375 12.402344 2.792969 11.144531 C 2.644531 9.890625 2.734375 8.699219 3.0625 7.574219 C 3.394531 6.441406 3.980469 5.457031 4.8125 4.625 C 5.484375 3.953125 6.257812 3.457031 7.125 3.144531 C 7.992188 2.828125 8.902344 2.664062 9.855469 2.65625 C 10.804688 2.648438 11.753906 2.769531 12.699219 3.019531 C 13.640625 3.269531 14.527344 3.617188 15.355469 4.0625 L 16.4375 3.011719 C 15.421875 2.40625 14.347656 1.949219 13.207031 1.636719 C 12.070312 1.316406 10.925781 1.167969 9.78125 1.1875 C 8.640625 1.207031 7.554688 1.414062 6.519531 1.800781 C 5.484375 2.191406 4.570312 2.785156 3.769531 3.582031 C 3.015625 4.339844 2.425781 5.214844 2.011719 6.207031 C 1.59375 7.195312 1.351562 8.246094 1.28125 9.363281 C 1.210938 10.476562 1.3125 11.609375 1.582031 12.769531 C 1.859375 13.921875 2.308594 15.054688 2.925781 16.167969 C 3.546875 17.277344 4.332031 18.3125 5.292969 19.269531 Z M 9.082031 16.15625 C 9.765625 16.835938 10.515625 17.425781 11.332031 17.925781 C 12.152344 18.425781 13 18.820312 13.875 19.105469 C 14.75 19.382812 15.617188 19.535156 16.480469 19.5625 C 17.347656 19.582031 18.171875 19.457031 18.949219 19.1875 C 19.726562 18.910156 20.421875 18.464844 21.03125 17.855469 C 21.65625 17.222656 22.109375 16.488281 22.386719 15.65625 C 22.664062 14.816406 22.773438 13.917969 22.71875 12.957031 C 22.671875 11.992188 22.460938 11.007812 22.09375 10 C 21.726562 8.992188 21.203125 8.011719 20.53125 7.050781 L 19.46875 8.113281 C 20.175781 9.164062 20.683594 10.230469 20.988281 11.3125 C 21.300781 12.394531 21.382812 13.417969 21.230469 14.375 C 21.078125 15.328125 20.664062 16.140625 19.988281 16.8125 C 19.378906 17.421875 18.679688 17.824219 17.894531 18.011719 C 17.117188 18.199219 16.304688 18.210938 15.457031 18.050781 C 14.609375 17.886719 13.773438 17.578125 12.949219 17.136719 C 12.128906 16.683594 11.371094 16.128906 10.675781 15.46875 Z M 10.449219 14.605469 L 19.800781 5.261719 L 18.25 3.71875 L 8.90625 13.050781 L 8.050781 15.042969 C 8.003906 15.144531 8.019531 15.242188 8.105469 15.332031 C 8.195312 15.421875 8.296875 15.449219 8.40625 15.40625 Z M 20.5625 4.511719 L 21.394531 3.675781 C 21.597656 3.476562 21.699219 3.246094 21.699219 2.988281 C 21.703125 2.734375 21.609375 2.511719 21.40625 2.324219 L 21.136719 2.074219 C 20.953125 1.90625 20.738281 1.828125 20.488281 1.832031 C 20.246094 1.832031 20.03125 1.925781 19.84375 2.113281 L 19.019531 2.957031 Z M 20.5625 4.511719 "/>
</g>
</svg>

<svg xmlns="http://www.w3.org/2000/svg" width="24" height="24"><path style="stroke:none;fill-rule:nonzero;fill:#fff;fill-opacity:1" d="M5.293 19.27c.684.69 1.445 1.3 2.27 1.812.796.488 1.582.875 2.355 1.168.777.293 1.5.512 2.164.656.668.153 1.23.25 1.688.293.273.028.48-.027.625-.156a.704.704 0 0 0 .261-.461.802.802 0 0 0-.144-.531c-.121-.164-.309-.266-.563-.301-.418-.055-.93-.152-1.531-.293-.668-.156-1.32-.36-1.961-.602-.7-.257-1.41-.597-2.125-1.023-.707-.43-1.375-.96-2-1.594a12.584 12.584 0 0 1-2.426-3.363c-.597-1.23-.969-2.473-1.113-3.73-.148-1.254-.059-2.446.27-3.57a6.85 6.85 0 0 1 1.75-2.95 6.244 6.244 0 0 1 2.312-1.48 8.126 8.126 0 0 1 2.73-.489c.961-.008 1.918.117 2.844.364.942.25 1.828.597 2.656 1.042l1.082-1.05a13.021 13.021 0 0 0-3.23-1.375 11.813 11.813 0 0 0-3.426-.45 9.695 9.695 0 0 0-3.261.614 7.75 7.75 0 0 0-2.75 1.781 8.18 8.18 0 0 0-1.758 2.625 9.56 9.56 0 0 0-.73 3.156c-.071 1.114.03 2.246.3 3.407a13.64 13.64 0 0 0 1.344 3.398 13.976 13.976 0 0 0 2.367 3.102Zm3.789-3.114a12.275 12.275 0 0 0 4.793 2.95c.875.277 1.742.43 2.605.456a6.972 6.972 0 0 0 2.47-.375 5.564 5.564 0 0 0 2.081-1.332 5.592 5.592 0 0 0 1.356-2.199c.277-.84.386-1.738.332-2.699-.047-.965-.258-1.95-.625-2.957a12.779 12.779 0 0 0-1.563-2.95L19.47 8.114c.707 1.051 1.215 2.117 1.52 3.2.312 1.082.394 2.105.241 3.062a4.3 4.3 0 0 1-1.242 2.438c-.61.609-1.308 1.011-2.093 1.199-.778.187-1.59.199-2.438.039a8.869 8.869 0 0 1-2.508-.914 11.057 11.057 0 0 1-2.273-1.668Zm1.367-1.55 9.352-9.344-1.551-1.543-9.344 9.332-.855 1.992c-.047.102-.031.2.054.289.09.09.192.117.301.074ZM20.563 4.511l.832-.836c.203-.2.304-.43.304-.688a.845.845 0 0 0-.293-.664l-.27-.25a.891.891 0 0 0-.648-.242.878.878 0 0 0-.644.281l-.824.844Zm0 0"/></svg>
